X:1
T:Heathrow, 76.76 D
T:Heathrow, 76.76 D
T:Peter Philip Bilhorn, 1886
T:Public Domain Courtesy of the Cyber Hymnal™
C:Peter Philip Bilhorn, 1886
Z:Public Domain
Z:Courtesy of the Cyber Hymnal™
%%score 1 2
L:1/8
Q:1/4=105
M:6/8
K:A
V:1 treble 
V:2 bass 
V:1
 [CE] | [CE]2 [Ec] [EB]2 [EA] | [DF] [FA]4 [DF] | [CE]2 [CA] [EB]2 [Ec] | [EB]3- [EB]2 [DE] | %5
 [CE]2 [Ec] [EB]2 [EA] | [DF] [FA]4 [DF] | [CE]2 [Ec] !fermata![DB]2 [CA] | [CA]3- [CA]2 [Ec] | %9
 [Ee]2 ([Ec]/[=FB]/) [^FA]2 [DF] | [CE] [CA]4 [Ec] | [Ee]2 ([Ec]/[=FB]/) [^FA]2 [FB] | %12
 [^Ec]3- [Ec]2 [D=E] | [CE]2 [Ec] [EB]2 [EA] | [DF] [FA]4 [^B,F] | [CE]2 [Ec] !fermata![DB]2 [CA] | %16
 [CA]3- [CA]2 |] %17
V:2
 [A,,A,] | [A,,A,]2 [A,,A,] [B,,G,]2 [C,A,] | [D,A,] [D,A,]4 [D,A,] | %3
 [E,A,]2 [E,A,] [E,G,]2 [E,A,] | [E,G,]3- [E,G,]2 [E,G,] | [A,,A,]2 [A,,A,] [B,,G,]2 [C,A,] | %6
 [D,A,] [D,A,]4 [D,A,] | [E,A,]2 [E,A,] !fermata![E,G,]2 [A,,A,] | [A,,E,A,]3- [A,,E,A,]2 [A,,A,] | %9
 [A,,C]2 [A,,A,] [D,A,]2 [D,A,] | [A,,A,] [A,,E,]4 [A,,A,] | [A,,C]2 [A,,A,] [D,A,]2 [D,F,] | %12
 [C,G,]3- [C,G,]2 [B,,G,] | [A,,A,]2 [A,,A,] [B,,G,]2 [C,A,] | [D,A,] [D,A,]4 [^D,A,] | %15
 [E,A,]2 [E,A,] !fermata![E,G,]2 [A,,A,] | [A,,E,A,]3- [A,,E,A,]2 |] %17

